X: 3382
T: Hon.ble Mrs Graham of Balgowan's
C: D.D.
%R: reel
B: Niel Gow & Sons "Complete Repository" v.3 p.38 #2
Z: 2021 John Chambers <jc:trillian.mit.edu>
M: C|
L: 1/8
K: D
% - - - - - - - - - -
V: 1 staves=2
D |\
ADFD FAAd | GBFA =cEEd | ADFD FAGB | A(gTf)>e dDD :| g | fdad fada | g=cec egcg |
fdad ^ceA=c | BGE^c dDDg || fdad fada | g=cec efga | fd^ce dDAF | E(gTf)>e dD D |]
|: !f!d |\
AdFd DdAd | BdFA =cEEd | AdFd DdAd | GBA^c dD D :| d | (Ad)(.f.d) gefd | Tedfd eg=ce |
dAfd eAag | fdec dDDd || (Ad)(.f.d) Tedfd | gefd Tc>deg | fdBd AdGd | FdEg fdd |]
% - - - - - - - - - -
V: 2 clef=bass middle=d
z |\
d2d2 d2f2 | g2f2 e2e2 | d2d2 f2g2 | a2A2 d2d :|z |
d'2d'2 d'2d'2 | =c'2c'2 c'2c'2 | d'2d'2 a2f2 | g2a2 d2d2 ||
d'2d'2 d'2d'2 | =c'2c'2 c'2c'2 | d'2a2 d2f2 | g2a2 d2d |]
|: !f!z |\
[d2D2][d2D2] [d2D2][f2F2] | [g2G2][f2F2] [e2E2][e2E2] |\
[d2D2][d2D2] [d2D2][f2F2] | [g2G2][a2A2] [d2D2][dD] :| z |
d'2d'2 c'2d'2 | d'2d'2 =c'2c'2 | d'2d'2 a2c'2 | d'2a2 d2d2 ||
d'2d'2 d'2d'2 | c'2d'2 a2c'2 | b2g2 f2g2 | a2A2 d2d |]
%
%%text End of the Medleys.


